Newaita-dark/apps/48/gnome-power-statistics.svg

<svg height="48pt" viewBox="0 0 48 48" width="48pt" xmlns="http://www.w3.org/2000/svg" xmlns:xlink="http://www.w3.org/1999/xlink"><linearGradient id="a"><stop offset="0" stop-opacity=".313725"/><stop offset=".222222" stop-opacity=".27451"/><stop offset="1" stop-opacity="0"/></linearGradient><radialGradient id="b" cx="450.90894" cy="189.57936" gradientTransform="matrix(.00000026 -.117199 -.210958 -.00000015 76.21141 95.393003)" gradientUnits="userSpaceOnUse" r="21.166656" xlink:href="#a"/><radialGradient id="c" cx="450.90894" cy="189.57936" gradientTransform="matrix(-.00000026 .117199 .210958 .00000015 -20.643605 -11.291216)" gradientUnits="userSpaceOnUse" r="21.166656" xlink:href="#a"/><radialGradient id="d" cx="450.90894" cy="189.57936" gradientTransform="matrix(-.00000026 -.117199 .210958 -.00000015 -20.643605 95.393003)" gradientUnits="userSpaceOnUse" r="21.166656" xlink:href="#a"/><radialGradient id="e" cx="450.90894" cy="189.57936" gradientTransform="matrix(.00000026 .117199 -.210958 .00000015 76.211407 -11.291217)" gradientUnits="userSpaceOnUse" r="21.166656" xlink:href="#a"/><linearGradient id="f" gradientTransform="matrix(.0200401 0 0 .093759 17.209655 20.158181)" gradientUnits="userSpaceOnUse" x1="255.32306" x2="255.32304" y1="233.5" y2="254.66666"><stop offset="0" stop-opacity=".27451"/><stop offset="1" stop-opacity="0"/></linearGradient><linearGradient id="g" gradientUnits="userSpaceOnUse" x1="254" x2="254" y1="-168.66667" y2="233.5"><stop offset="0" stop-color="#616161"/><stop offset="1" stop-color="#424242"/></linearGradient><linearGradient id="h" gradientUnits="userSpaceOnUse" x1="23.814786" x2="23.814786" y1="4.34415668747" y2="42.0509015"><stop offset="0" stop-color="#90a4ae"/><stop offset="1" stop-color="#78909c"/></linearGradient><linearGradient id="i"><stop offset="0" stop-color="#ffa726"/><stop offset="1" stop-color="#ffb74d"/></linearGradient><linearGradient id="j" gradientUnits="userSpaceOnUse" x1="18.85337193747" x2="18.85337193747" xlink:href="#i" y1="42.0509015" y2="4.34415762506"/><linearGradient id="k" gradientUnits="userSpaceOnUse" x1="32.745332" x2="32.745332" xlink:href="#i" y1="42.0509065" y2="28.15894825002"/><linearGradient id="l" gradientUnits="userSpaceOnUse" x1="36.71446362506" x2="36.71446362506" y1="42.0509065" y2="24.189817"><stop offset="0" stop-color="#66bb6a"/><stop offset="1" stop-color="#81c784"/></linearGradient><linearGradient id="m" gradientUnits="userSpaceOnUse" x1="28.77620037494" x2="28.77620037494" y1="42.0509065" y2="32.12807837494"><stop offset="0" stop-color="#ef5350"/><stop offset="1" stop-color="#e57373"/></linearGradient><path d="m36.714844 42.050781h3.96875v-1.984375h-3.96875zm0 0" fill="url(#b)"/><path d="m18.851562 42.050781h-3.96875v1.984375h3.96875zm0 0" fill="url(#c)"/><path d="m18.851562 42.050781h-3.96875v-1.984375h3.96875zm0 0" fill="url(#d)"/><path d="m36.714844 42.050781h3.96875v1.984375h-3.96875zm0 0" fill="url(#e)"/><path d="m18.851562 41.554688h17.863282v2.480468h-17.863282zm0 0" fill="url(#f)"/><path d="m254.017409-168.671091c111.031064 0 201.064133 90.033069 201.064133 201.105795 0 111.031064-90.033069 201.064133-201.064133 201.064133-111.072726 0-201.105795-90.033069-201.105795-201.064133 0-111.072726 90.033069-201.105795 201.105795-201.105795zm0 0" fill="url(#g)" stroke="#333" stroke-linecap="round" stroke-width="3" transform="matrix(.093759 0 0 .093759 0 20.158175)"/><path d="m4.960938 23.355469c.085937 10.371093 8.460937 18.695312 18.855468 18.695312 10.390625 0 18.765625-8.324219 18.851563-18.695312-15.003907-11.1875-20.996094 10.96875-37.707031 0zm0 0" fill="url(#h)"/><path d="m23.816406 41.925781c-10.445312 0-18.855468-8.40625-18.855468-18.851562 0-.0625 0-.125 0-.183594.101562 10.355469 8.472656 18.667969 18.855468 18.667969 10.382813 0 18.753906-8.3125 18.851563-18.667969v.183594c0 10.445312-8.410157 18.851562-18.851563 18.851562zm0 0" fill-opacity=".196078"/><path d="m23.816406 4.46875c-10.445312 0-18.855468 8.40625-18.855468 18.851562v.1875c.101562-10.359374 8.472656-18.671874 18.855468-18.671874 10.382813 0 18.753906 8.3125 18.851563 18.671874 0-.0625 0-.125 0-.1875 0-10.445312-8.410157-18.851562-18.851563-18.851562zm0 0" fill="#fff" fill-opacity=".392157"/><path d="m23.816406 4.203125c-10.523437 0-18.996094 8.472656-18.996094 18.996094 0 10.519531 8.472657 18.992187 18.996094 18.992187 10.519532 0 18.992188-8.472656 18.992188-18.992187 0-10.523438-8.472656-18.996094-18.992188-18.996094zm0 .28125c10.367188 0 18.710938 8.34375 18.710938 18.714844 0 10.367187-8.34375 18.710937-18.710938 18.710937-10.371094 0-18.714844-8.34375-18.714844-18.710937 0-10.371094 8.34375-18.714844 18.714844-18.714844zm0 0" fill="#212121"/><path d="m16.867188 35.105469 14.886718-11.90625-5.953125-1.984375 4.960938-9.925782-14.886719 11.910157 5.957031 1.984375zm0 0" fill="url(#j)" fill-rule="evenodd"/><path d="m30.761719 11.289062-14.886719 11.910157.878906.289062 13.179688-10.542969zm-4.539063 10.066407-.421875.851562 5.078125 1.691407.875-.699219zm-4.816406 4.675781-4.539062 9.074219.828124-.660157 4.136719-8.269531zm0 0" fill="#fff" fill-opacity=".392157" fill-rule="evenodd"/><path d="m30.761719 12.28125-1.242188.992188-3.71875 7.445312.636719.210938zm-13.570313 10.859375-1.316406 1.050781 5.316406 1.769532.640625-1.273438zm13.25.613281-12.332031 9.863282-1.242187 2.480468 14.886718-11.90625zm0 0" fill-opacity=".235294" fill-rule="evenodd"/><path d="m179.899487 159.422578 158.776504-126.987874-63.493936-21.164645 52.911614-105.86489-158.776505 127.029535 63.5356 21.164646zm0 0" fill="none" stroke="#212121" stroke-width="3" transform="matrix(.093759 0 0 .093759 0 20.158175)"/><path d="m31.753906 28.160156h1.984375c.546875 0 .992188.441406.992188.992188v11.90625c0 .546875-.445313.992187-.992188.992187h-1.984375c-.550781 0-.992187-.445312-.992187-.992187v-11.90625c0-.550782.441406-.992188.992187-.992188zm0 0" fill="url(#k)"/><path d="m35.722656 24.191406h1.984375c.546875 0 .992188.441406.992188.992188v15.875c0 .546875-.445313.992187-.992188.992187h-1.984375c-.546875 0-.992187-.445312-.992187-.992187v-15.875c0-.550782.445312-.992188.992187-.992188zm0 0" fill="url(#l)"/><path d="m27.785156 32.128906h1.984375c.546875 0 .992188.445313.992188.992188v7.9375c0 .546875-.445313.992187-.992188.992187h-1.984375c-.550781 0-.992187-.445312-.992187-.992187v-7.9375c0-.546875.441406-.992188.992187-.992188zm0 0" fill="url(#m)"/><path d="m31.753906 28.160156c-.550781 0-.992187.441406-.992187.992188v.496094c0-.550782.441406-.992188.992187-.992188h1.984375c.550781 0 .992188.441406.992188.992188v-.496094c0-.550782-.441407-.992188-.992188-.992188zm0 0" fill="#fff" fill-opacity=".392157"/><path d="m35.722656 24.191406c-.550781 0-.992187.441406-.992187.992188v.496094c0-.550782.441406-.992188.992187-.992188h1.984375c.550781 0 .992188.441406.992188.992188v-.496094c0-.550782-.441407-.992188-.992188-.992188zm0 0" fill="#fff" fill-opacity=".392157"/><path d="m27.785156 32.128906c-.550781 0-.992187.441406-.992187.992188v.496094c0-.550782.441406-.992188.992187-.992188h1.984375c.546875 0 .992188.441406.992188.992188v-.496094c0-.550782-.445313-.992188-.992188-.992188zm0 0" fill="#fff" fill-opacity=".392157"/><path d="m33.738281 42.050781c.550781 0 .992188-.441406.992188-.992187v-.496094c0 .550781-.441407.992188-.992188.992188h-1.984375c-.550781 0-.992187-.441407-.992187-.992188v.496094c0 .550781.441406.992187.992187.992187zm0 0" fill-opacity=".235294"/><path d="m29.769531 42.050781c.546875 0 .992188-.441406.992188-.992187v-.496094c0 .550781-.445313.992188-.992188.992188h-1.984375c-.550781 0-.992187-.441407-.992187-.992188v.496094c0 .550781.441406.992187.992187.992187zm0 0" fill-opacity=".235294"/><path d="m37.707031 42.050781c.550781 0 .992188-.441406.992188-.992187v-.496094c0 .550781-.441407.992188-.992188.992188h-1.984375c-.550781 0-.992187-.441407-.992187-.992188v.496094c0 .550781.441406.992187.992187.992187zm0 0" fill-opacity=".235294"/><g stroke-linecap="round" stroke-width="3"><path d="m338.675991 85.346318h21.164646c5.832776 0 10.582323 4.707884 10.582323 10.582323v126.987873c0 5.832777-4.749547 10.582323-10.582323 10.582323h-21.164646c-5.874439 0-10.582322-4.749546-10.582322-10.582323v-126.987873c0-5.874439 4.707883-10.582323 10.582322-10.582323zm0 0" fill="none" stroke="#212121" stroke-linejoin="round" transform="matrix(.093759 0 0 .093759 0 20.158175)"/><path d="m381.005282 43.017027h21.164646c5.832776 0 10.582323 4.707884 10.582323 10.582323v169.317164c0 5.832777-4.749547 10.582323-10.582323 10.582323h-21.164646c-5.832776 0-10.582322-4.749546-10.582322-10.582323v-169.317164c0-5.874439 4.749546-10.582323 10.582322-10.582323zm0 0" fill="none" stroke="#212121" stroke-linejoin="round" transform="matrix(.093759 0 0 .093759 0 20.158175)"/><path d="m296.3467 127.675609h21.164646c5.832776 0 10.582323 4.749547 10.582323 10.582323v84.658582c0 5.832777-4.749547 10.582323-10.582323 10.582323h-21.164646c-5.874439 0-10.582322-4.749546-10.582322-10.582323v-84.658582c0-5.832776 4.707883-10.582323 10.582322-10.582323zm0 0" fill="none" stroke="#212121" stroke-linejoin="round" transform="matrix(.093759 0 0 .093759 0 20.158175)"/></g></svg>

<?xml version="1.0" encoding="UTF-8"?>
<svg xmlns="http://www.w3.org/2000/svg" xmlns:xlink="http://www.w3.org/1999/xlink" width="48pt" height="48pt" viewBox="0 0 48 48" version="1.1">
<defs>
<radialGradient id="radial0" gradientUnits="userSpaceOnUse" cx="450.90894" cy="189.57936" fx="450.90894" fy="189.57936" r="21.166656" gradientTransform="matrix(0.000000261256,-0.117199,-0.210958,-0.000000152308,76.21141,95.393003)">
<stop offset="0" style="stop-color:rgb(0%,0%,0%);stop-opacity:0.313725;"/>
<stop offset="0.222222" style="stop-color:rgb(0%,0%,0%);stop-opacity:0.27451;"/>
<stop offset="1" style="stop-color:rgb(0%,0%,0%);stop-opacity:0;"/>
</radialGradient>
<radialGradient id="radial1" gradientUnits="userSpaceOnUse" cx="450.90894" cy="189.57936" fx="450.90894" fy="189.57936" r="21.166656" gradientTransform="matrix(-0.000000261256,0.117199,0.210958,0.000000152308,-20.643605,-11.291216)">
<stop offset="0" style="stop-color:rgb(0%,0%,0%);stop-opacity:0.313725;"/>
<stop offset="0.222222" style="stop-color:rgb(0%,0%,0%);stop-opacity:0.27451;"/>
<stop offset="1" style="stop-color:rgb(0%,0%,0%);stop-opacity:0;"/>
</radialGradient>
<radialGradient id="radial2" gradientUnits="userSpaceOnUse" cx="450.90894" cy="189.57936" fx="450.90894" fy="189.57936" r="21.166656" gradientTransform="matrix(-0.000000261256,-0.117199,0.210958,-0.000000152308,-20.643605,95.393003)">
<stop offset="0" style="stop-color:rgb(0%,0%,0%);stop-opacity:0.313725;"/>
<stop offset="0.222222" style="stop-color:rgb(0%,0%,0%);stop-opacity:0.27451;"/>
<stop offset="1" style="stop-color:rgb(0%,0%,0%);stop-opacity:0;"/>
</radialGradient>
<radialGradient id="radial3" gradientUnits="userSpaceOnUse" cx="450.90894" cy="189.57936" fx="450.90894" fy="189.57936" r="21.166656" gradientTransform="matrix(0.000000261256,0.117199,-0.210958,0.000000152308,76.211407,-11.291217)">
<stop offset="0" style="stop-color:rgb(0%,0%,0%);stop-opacity:0.313725;"/>
<stop offset="0.222222" style="stop-color:rgb(0%,0%,0%);stop-opacity:0.27451;"/>
<stop offset="1" style="stop-color:rgb(0%,0%,0%);stop-opacity:0;"/>
</radialGradient>
<linearGradient id="linear0" gradientUnits="userSpaceOnUse" x1="255.32306" y1="233.5" x2="255.32304" y2="254.66666" gradientTransform="matrix(0.0200401,0,0,0.093759,17.209655,20.158181)">
<stop offset="0" style="stop-color:rgb(0%,0%,0%);stop-opacity:0.27451;"/>
<stop offset="1" style="stop-color:rgb(0%,0%,0%);stop-opacity:0;"/>
</linearGradient>
<linearGradient id="linear1" gradientUnits="userSpaceOnUse" x1="254" y1="-168.66667" x2="254" y2="233.5" gradientTransform="matrix(1,0,0,1,0,0)">
<stop offset="0" style="stop-color:rgb(38.039216%,38.039216%,38.039216%);stop-opacity:1;"/>
<stop offset="1" style="stop-color:rgb(25.882353%,25.882353%,25.882353%);stop-opacity:1;"/>
</linearGradient>
<linearGradient id="linear2" gradientUnits="userSpaceOnUse" x1="254" y1="-168.66667" x2="254" y2="233.5" gradientTransform="matrix(0.093759,0,0,0.093759,0,20.158175)">
<stop offset="0" style="stop-color:rgb(56.470588%,64.313725%,68.235294%);stop-opacity:1;"/>
<stop offset="1" style="stop-color:rgb(47.058824%,56.470588%,61.176471%);stop-opacity:1;"/>
</linearGradient>
<linearGradient id="linear3" gradientUnits="userSpaceOnUse" x1="201.08333" y1="233.5" x2="201.08333" y2="-168.66666" gradientTransform="matrix(0.093759,0,0,0.093759,0,20.158175)">
<stop offset="0" style="stop-color:rgb(100%,65.490196%,14.901961%);stop-opacity:1;"/>
<stop offset="1" style="stop-color:rgb(100%,71.764706%,30.196078%);stop-opacity:1;"/>
</linearGradient>
<linearGradient id="linear4" gradientUnits="userSpaceOnUse" x1="381" y1="233.5" x2="381" y2="85.333336" gradientTransform="matrix(0.093759,0,0,0.093759,-2.976847,20.15818)">
<stop offset="0" style="stop-color:rgb(100%,65.490196%,14.901961%);stop-opacity:1;"/>
<stop offset="1" style="stop-color:rgb(100%,71.764706%,30.196078%);stop-opacity:1;"/>
</linearGradient>
<linearGradient id="linear5" gradientUnits="userSpaceOnUse" x1="423.33334" y1="233.5" x2="423.33334" y2="43" gradientTransform="matrix(0.093759,0,0,0.093759,-2.976847,20.15818)">
<stop offset="0" style="stop-color:rgb(40%,73.333333%,41.568627%);stop-opacity:1;"/>
<stop offset="1" style="stop-color:rgb(50.588235%,78.039216%,51.764706%);stop-opacity:1;"/>
</linearGradient>
<linearGradient id="linear6" gradientUnits="userSpaceOnUse" x1="338.66666" y1="233.5" x2="338.66666" y2="127.66666" gradientTransform="matrix(0.093759,0,0,0.093759,-2.976847,20.15818)">
<stop offset="0" style="stop-color:rgb(93.72549%,32.54902%,31.372549%);stop-opacity:1;"/>
<stop offset="1" style="stop-color:rgb(89.803922%,45.098039%,45.098039%);stop-opacity:1;"/>
</linearGradient>
</defs>
<g id="surface1">
<path style=" stroke:none;fill-rule:nonzero;fill:url(#radial0);" d="M 36.714844 42.050781 L 40.683594 42.050781 L 40.683594 40.066406 L 36.714844 40.066406 Z M 36.714844 42.050781 "/>
<path style=" stroke:none;fill-rule:nonzero;fill:url(#radial1);" d="M 18.851562 42.050781 L 14.882812 42.050781 L 14.882812 44.035156 L 18.851562 44.035156 Z M 18.851562 42.050781 "/>
<path style=" stroke:none;fill-rule:nonzero;fill:url(#radial2);" d="M 18.851562 42.050781 L 14.882812 42.050781 L 14.882812 40.066406 L 18.851562 40.066406 Z M 18.851562 42.050781 "/>
<path style=" stroke:none;fill-rule:nonzero;fill:url(#radial3);" d="M 36.714844 42.050781 L 40.683594 42.050781 L 40.683594 44.035156 L 36.714844 44.035156 Z M 36.714844 42.050781 "/>
<path style=" stroke:none;fill-rule:nonzero;fill:url(#linear0);" d="M 18.851562 41.554688 L 36.714844 41.554688 L 36.714844 44.035156 L 18.851562 44.035156 Z M 18.851562 41.554688 "/>
<path style="fill-rule:nonzero;fill:url(#linear1);stroke-width:3;stroke-linecap:round;stroke-linejoin:miter;stroke:rgb(20%,20%,20%);stroke-opacity:1;stroke-miterlimit:4;" d="M 254.017409 -168.671091 C 365.048473 -168.671091 455.081542 -78.638022 455.081542 32.434704 C 455.081542 143.465768 365.048473 233.498837 254.017409 233.498837 C 142.944683 233.498837 52.911614 143.465768 52.911614 32.434704 C 52.911614 -78.638022 142.944683 -168.671091 254.017409 -168.671091 Z M 254.017409 -168.671091 " transform="matrix(0.093759,0,0,0.093759,0,20.158175)"/>
<path style=" stroke:none;fill-rule:nonzero;fill:url(#linear2);" d="M 4.960938 23.355469 C 5.046875 33.726562 13.421875 42.050781 23.816406 42.050781 C 34.207031 42.050781 42.582031 33.726562 42.667969 23.355469 C 27.664062 12.167969 21.671875 34.324219 4.960938 23.355469 Z M 4.960938 23.355469 "/>
<path style=" stroke:none;fill-rule:nonzero;fill:rgb(0%,0%,0%);fill-opacity:0.196078;" d="M 23.816406 41.925781 C 13.371094 41.925781 4.960938 33.519531 4.960938 23.074219 C 4.960938 23.011719 4.960938 22.949219 4.960938 22.890625 C 5.0625 33.246094 13.433594 41.558594 23.816406 41.558594 C 34.199219 41.558594 42.570312 33.246094 42.667969 22.890625 C 42.667969 22.949219 42.667969 23.011719 42.667969 23.074219 C 42.667969 33.519531 34.257812 41.925781 23.816406 41.925781 Z M 23.816406 41.925781 "/>
<path style=" stroke:none;fill-rule:nonzero;fill:rgb(100%,100%,100%);fill-opacity:0.392157;" d="M 23.816406 4.46875 C 13.371094 4.46875 4.960938 12.875 4.960938 23.320312 C 4.960938 23.382812 4.960938 23.445312 4.960938 23.507812 C 5.0625 13.148438 13.433594 4.835938 23.816406 4.835938 C 34.199219 4.835938 42.570312 13.148438 42.667969 23.507812 C 42.667969 23.445312 42.667969 23.382812 42.667969 23.320312 C 42.667969 12.875 34.257812 4.46875 23.816406 4.46875 Z M 23.816406 4.46875 "/>
<path style=" stroke:none;fill-rule:nonzero;fill:rgb(12.941176%,12.941176%,12.941176%);fill-opacity:1;" d="M 23.816406 4.203125 C 13.292969 4.203125 4.820312 12.675781 4.820312 23.199219 C 4.820312 33.71875 13.292969 42.191406 23.816406 42.191406 C 34.335938 42.191406 42.808594 33.71875 42.808594 23.199219 C 42.808594 12.675781 34.335938 4.203125 23.816406 4.203125 Z M 23.816406 4.484375 C 34.183594 4.484375 42.527344 12.828125 42.527344 23.199219 C 42.527344 33.566406 34.183594 41.910156 23.816406 41.910156 C 13.445312 41.910156 5.101562 33.566406 5.101562 23.199219 C 5.101562 12.828125 13.445312 4.484375 23.816406 4.484375 Z M 23.816406 4.484375 "/>
<path style=" stroke:none;fill-rule:evenodd;fill:url(#linear3);" d="M 16.867188 35.105469 L 31.753906 23.199219 L 25.800781 21.214844 L 30.761719 11.289062 L 15.875 23.199219 L 21.832031 25.183594 Z M 16.867188 35.105469 "/>
<path style=" stroke:none;fill-rule:evenodd;fill:rgb(100%,100%,100%);fill-opacity:0.392157;" d="M 30.761719 11.289062 L 15.875 23.199219 L 16.753906 23.488281 L 29.933594 12.945312 Z M 26.222656 21.355469 L 25.800781 22.207031 L 30.878906 23.898438 L 31.753906 23.199219 Z M 21.40625 26.03125 L 16.867188 35.105469 L 17.695312 34.445312 L 21.832031 26.175781 Z M 21.40625 26.03125 "/>
<path style=" stroke:none;fill-rule:evenodd;fill:rgb(0%,0%,0%);fill-opacity:0.235294;" d="M 30.761719 12.28125 L 29.519531 13.273438 L 25.800781 20.71875 L 26.4375 20.929688 Z M 17.191406 23.140625 L 15.875 24.191406 L 21.191406 25.960938 L 21.832031 24.6875 Z M 30.441406 23.753906 L 18.109375 33.617188 L 16.867188 36.097656 L 31.753906 24.191406 Z M 30.441406 23.753906 "/>
<path style="fill:none;stroke-width:3;stroke-linecap:butt;stroke-linejoin:miter;stroke:rgb(12.941176%,12.941176%,12.941176%);stroke-opacity:1;stroke-miterlimit:4;" d="M 179.899487 159.422578 L 338.675991 32.434704 L 275.182055 11.270059 L 328.093669 -94.594831 L 169.317164 32.434704 L 232.852764 53.59935 Z M 179.899487 159.422578 " transform="matrix(0.093759,0,0,0.093759,0,20.158175)"/>
<path style=" stroke:none;fill-rule:nonzero;fill:url(#linear4);" d="M 31.753906 28.160156 L 33.738281 28.160156 C 34.285156 28.160156 34.730469 28.601562 34.730469 29.152344 L 34.730469 41.058594 C 34.730469 41.605469 34.285156 42.050781 33.738281 42.050781 L 31.753906 42.050781 C 31.203125 42.050781 30.761719 41.605469 30.761719 41.058594 L 30.761719 29.152344 C 30.761719 28.601562 31.203125 28.160156 31.753906 28.160156 Z M 31.753906 28.160156 "/>
<path style=" stroke:none;fill-rule:nonzero;fill:url(#linear5);" d="M 35.722656 24.191406 L 37.707031 24.191406 C 38.253906 24.191406 38.699219 24.632812 38.699219 25.183594 L 38.699219 41.058594 C 38.699219 41.605469 38.253906 42.050781 37.707031 42.050781 L 35.722656 42.050781 C 35.175781 42.050781 34.730469 41.605469 34.730469 41.058594 L 34.730469 25.183594 C 34.730469 24.632812 35.175781 24.191406 35.722656 24.191406 Z M 35.722656 24.191406 "/>
<path style=" stroke:none;fill-rule:nonzero;fill:url(#linear6);" d="M 27.785156 32.128906 L 29.769531 32.128906 C 30.316406 32.128906 30.761719 32.574219 30.761719 33.121094 L 30.761719 41.058594 C 30.761719 41.605469 30.316406 42.050781 29.769531 42.050781 L 27.785156 42.050781 C 27.234375 42.050781 26.792969 41.605469 26.792969 41.058594 L 26.792969 33.121094 C 26.792969 32.574219 27.234375 32.128906 27.785156 32.128906 Z M 27.785156 32.128906 "/>
<path style=" stroke:none;fill-rule:nonzero;fill:rgb(100%,100%,100%);fill-opacity:0.392157;" d="M 31.753906 28.160156 C 31.203125 28.160156 30.761719 28.601562 30.761719 29.152344 L 30.761719 29.648438 C 30.761719 29.097656 31.203125 28.65625 31.753906 28.65625 L 33.738281 28.65625 C 34.289062 28.65625 34.730469 29.097656 34.730469 29.648438 L 34.730469 29.152344 C 34.730469 28.601562 34.289062 28.160156 33.738281 28.160156 Z M 31.753906 28.160156 "/>
<path style=" stroke:none;fill-rule:nonzero;fill:rgb(100%,100%,100%);fill-opacity:0.392157;" d="M 35.722656 24.191406 C 35.171875 24.191406 34.730469 24.632812 34.730469 25.183594 L 34.730469 25.679688 C 34.730469 25.128906 35.171875 24.6875 35.722656 24.6875 L 37.707031 24.6875 C 38.257812 24.6875 38.699219 25.128906 38.699219 25.679688 L 38.699219 25.183594 C 38.699219 24.632812 38.257812 24.191406 37.707031 24.191406 Z M 35.722656 24.191406 "/>
<path style=" stroke:none;fill-rule:nonzero;fill:rgb(100%,100%,100%);fill-opacity:0.392157;" d="M 27.785156 32.128906 C 27.234375 32.128906 26.792969 32.570312 26.792969 33.121094 L 26.792969 33.617188 C 26.792969 33.066406 27.234375 32.625 27.785156 32.625 L 29.769531 32.625 C 30.316406 32.625 30.761719 33.066406 30.761719 33.617188 L 30.761719 33.121094 C 30.761719 32.570312 30.316406 32.128906 29.769531 32.128906 Z M 27.785156 32.128906 "/>
<path style=" stroke:none;fill-rule:nonzero;fill:rgb(0%,0%,0%);fill-opacity:0.235294;" d="M 33.738281 42.050781 C 34.289062 42.050781 34.730469 41.609375 34.730469 41.058594 L 34.730469 40.5625 C 34.730469 41.113281 34.289062 41.554688 33.738281 41.554688 L 31.753906 41.554688 C 31.203125 41.554688 30.761719 41.113281 30.761719 40.5625 L 30.761719 41.058594 C 30.761719 41.609375 31.203125 42.050781 31.753906 42.050781 Z M 33.738281 42.050781 "/>
<path style=" stroke:none;fill-rule:nonzero;fill:rgb(0%,0%,0%);fill-opacity:0.235294;" d="M 29.769531 42.050781 C 30.316406 42.050781 30.761719 41.609375 30.761719 41.058594 L 30.761719 40.5625 C 30.761719 41.113281 30.316406 41.554688 29.769531 41.554688 L 27.785156 41.554688 C 27.234375 41.554688 26.792969 41.113281 26.792969 40.5625 L 26.792969 41.058594 C 26.792969 41.609375 27.234375 42.050781 27.785156 42.050781 Z M 29.769531 42.050781 "/>
<path style=" stroke:none;fill-rule:nonzero;fill:rgb(0%,0%,0%);fill-opacity:0.235294;" d="M 37.707031 42.050781 C 38.257812 42.050781 38.699219 41.609375 38.699219 41.058594 L 38.699219 40.5625 C 38.699219 41.113281 38.257812 41.554688 37.707031 41.554688 L 35.722656 41.554688 C 35.171875 41.554688 34.730469 41.113281 34.730469 40.5625 L 34.730469 41.058594 C 34.730469 41.609375 35.171875 42.050781 35.722656 42.050781 Z M 37.707031 42.050781 "/>
<path style="fill:none;stroke-width:3;stroke-linecap:round;stroke-linejoin:round;stroke:rgb(12.941176%,12.941176%,12.941176%);stroke-opacity:1;stroke-miterlimit:4;" d="M 338.675991 85.346318 L 359.840637 85.346318 C 365.673413 85.346318 370.42296 90.054202 370.42296 95.928641 L 370.42296 222.916514 C 370.42296 228.749291 365.673413 233.498837 359.840637 233.498837 L 338.675991 233.498837 C 332.801552 233.498837 328.093669 228.749291 328.093669 222.916514 L 328.093669 95.928641 C 328.093669 90.054202 332.801552 85.346318 338.675991 85.346318 Z M 338.675991 85.346318 " transform="matrix(0.093759,0,0,0.093759,0,20.158175)"/>
<path style="fill:none;stroke-width:3;stroke-linecap:round;stroke-linejoin:round;stroke:rgb(12.941176%,12.941176%,12.941176%);stroke-opacity:1;stroke-miterlimit:4;" d="M 381.005282 43.017027 L 402.169928 43.017027 C 408.002704 43.017027 412.752251 47.724911 412.752251 53.59935 L 412.752251 222.916514 C 412.752251 228.749291 408.002704 233.498837 402.169928 233.498837 L 381.005282 233.498837 C 375.172506 233.498837 370.42296 228.749291 370.42296 222.916514 L 370.42296 53.59935 C 370.42296 47.724911 375.172506 43.017027 381.005282 43.017027 Z M 381.005282 43.017027 " transform="matrix(0.093759,0,0,0.093759,0,20.158175)"/>
<path style="fill:none;stroke-width:3;stroke-linecap:round;stroke-linejoin:round;stroke:rgb(12.941176%,12.941176%,12.941176%);stroke-opacity:1;stroke-miterlimit:4;" d="M 296.3467 127.675609 L 317.511346 127.675609 C 323.344122 127.675609 328.093669 132.425156 328.093669 138.257932 L 328.093669 222.916514 C 328.093669 228.749291 323.344122 233.498837 317.511346 233.498837 L 296.3467 233.498837 C 290.472261 233.498837 285.764378 228.749291 285.764378 222.916514 L 285.764378 138.257932 C 285.764378 132.425156 290.472261 127.675609 296.3467 127.675609 Z M 296.3467 127.675609 " transform="matrix(0.093759,0,0,0.093759,0,20.158175)"/>
</g>
</svg>
